actions/16/face-smile.svg

<?xml version="1.0" encoding="UTF-8" standalone="no"?>
<!-- Created with Inkscape (http://www.inkscape.org/) -->

<svg
   xmlns:dc="http://purl.org/dc/elements/1.1/"
   xmlns:cc="http://creativecommons.org/ns#"
   xmlns:rdf="http://www.w3.org/1999/02/22-rdf-syntax-ns#"
   xmlns:svg="http://www.w3.org/2000/svg"
   xmlns="http://www.w3.org/2000/svg"
   xmlns:sodipodi="http://sodipodi.sourceforge.net/DTD/sodipodi-0.dtd"
   xmlns:inkscape="http://www.inkscape.org/namespaces/inkscape"
   width="16"
   height="16"
   id="svg2"
   version="1.1"
   inkscape:version="0.48.3.1 r9886"
   sodipodi:docname="face-smile.svg">
  <sodipodi:namedview
     id="base"
     pagecolor="#cbced6"
     bordercolor="#666666"
     borderopacity="1.0"
     inkscape:pageopacity="1"
     inkscape:pageshadow="2"
     inkscape:zoom="45.254834"
     inkscape:cx="7.3540732"
     inkscape:cy="8.3282762"
     inkscape:document-units="px"
     inkscape:current-layer="layer1"
     showgrid="true"
     inkscape:window-width="1920"
     inkscape:window-height="1032"
     inkscape:window-x="-7"
     inkscape:window-y="25"
     inkscape:window-maximized="1"
     showguides="true"
     inkscape:guide-bbox="true"
     fit-margin-top="0"
     fit-margin-left="0"
     fit-margin-right="0"
     fit-margin-bottom="0"
     inkscape:snap-global="true">
    <inkscape:grid
       snapvisiblegridlinesonly="true"
       enabled="true"
       visible="true"
       empspacing="5"
       id="grid2816"
       type="xygrid"
       originx="-410px"
       originy="18.999958px" />
  </sodipodi:namedview>
  <defs
     id="defs4" />
  <metadata
     id="metadata7">
    <rdf:RDF>
      <cc:Work
         rdf:about="">
        <dc:format>image/svg+xml</dc:format>
        <dc:type
           rdf:resource="http://purl.org/dc/dcmitype/StillImage" />
        <dc:title />
      </cc:Work>
    </rdf:RDF>
  </metadata>
  <g
     transform="translate(-410,-1055.3622)"
     id="layer1"
     inkscape:groupmode="layer"
     inkscape:label="Layer 1">
    <path
       sodipodi:nodetypes="sssssccccccccccccsccsc"
       inkscape:connector-curvature="0"
       id="path2984"
       d="m 418,1056.3622 c -3.8557,0 -7,3.1442 -7,7 0,3.8557 3.1443,7 7,7 3.85569,0 7,-3.1443 7,-7 0,-3.8558 -3.14431,-7 -7,-7 z m -3,4 2,0 0,2 -2,0 z m 4,0 2,0 0,2 -2,0 z m -5.5,4 1.0625,0 c 0.4319,1.4528 1.84615,2 3.4375,2 1.59135,0 3.0056,-0.5472 3.4375,-2 l 1.0625,0 c -0.4642,2.0053 -2.36537,3.5 -4.5,3.5 -2.13463,0 -4.03581,-1.4947 -4.5,-3.5 z"
       style="font-size:medium;font-style:normal;font-variant:normal;font-weight:normal;font-stretch:normal;text-indent:0;text-align:start;text-decoration:none;line-height:normal;letter-spacing:normal;word-spacing:normal;text-transform:none;direction:ltr;block-progression:tb;writing-mode:lr-tb;text-anchor:start;baseline-shift:baseline;color:#000000;fill:#27303a;fill-opacity:0.753280819999999968;stroke:none;stroke-width:2.28571415;marker:none;visibility:visible;display:inline;overflow:visible;enable-background:accumulate;font-family:Sans;-inkscape-font-specification:Sans" />
    <path
       style="font-size:medium;font-style:normal;font-variant:normal;font-weight:normal;font-stretch:normal;text-indent:0;text-align:start;text-decoration:none;line-height:normal;letter-spacing:normal;word-spacing:normal;text-transform:none;direction:ltr;block-progression:tb;writing-mode:lr-tb;text-anchor:start;baseline-shift:baseline;color:#000000;fill:#f1f3f5;fill-opacity:0.90288714000000003;fill-rule:nonzero;stroke:none;stroke-width:2;marker:none;visibility:visible;display:inline;overflow:visible;enable-background:accumulate;font-family:Sans;-inkscape-font-specification:Sans"
       d="M 8 -0.40625 C 3.3832 -0.40625 -0.40625 3.3831 -0.40625 8 C -0.40625 12.6168 3.38317 16.40625 8 16.40625 C 12.61682 16.40625 16.40625 12.6168 16.40625 8 C 16.40625 3.3831 12.6168 -0.40625 8 -0.40625 z M 8 1 C 11.85569 1 15 4.1442 15 8 C 15 11.8557 11.85569 15 8 15 C 4.1443 15 1 11.8557 1 8 C 1 4.1442 4.1443 1 8 1 z M 5 5 L 5 7 L 7 7 L 7 5 L 5 5 z M 9 5 L 9 7 L 11 7 L 11 5 L 9 5 z M 3.5 9 C 3.96419 11.0053 5.86537 12.5 8 12.5 C 10.13463 12.5 12.0358 11.0053 12.5 9 L 11.4375 9 C 11.0056 10.4528 9.59135 11 8 11 C 6.40865 11 4.9944 10.4528 4.5625 9 L 3.5 9 z "
       transform="translate(410,1055.3622)"
       id="path3122" />
  </g>
</svg>

<?xml version="1.0" encoding="UTF-8"?>
<svg id="a" width="16" height="16" version="1.1" xmlns="http://www.w3.org/2000/svg" xmlns:cc="http://creativecommons.org/ns#" xmlns:dc="http://purl.org/dc/elements/1.1/" xmlns:rdf="http://www.w3.org/1999/02/22-rdf-syntax-ns#">
	<metadata id="c">
		<rdf:RDF>
			<cc:Work rdf:about="">
				<dc:format>image/svg+xml</dc:format>
				<dc:type rdf:resource="http://purl.org/dc/dcmitype/StillImage"/>
				<dc:title/>
			</cc:Work>
		</rdf:RDF>
	</metadata>
	<defs>
		<style id="current-color-scheme" type="text/css">.ColorScheme-Text {color:#090d11;}.ColorScheme-Background{color:#ffffff;}</style>
	</defs>
	<g id="b" transform="translate(-410 -1055.4)">
		<path id="e" d="m418 1056.4c-3.8557 0-7 3.1442-7 7 0 3.8557 3.1443 7 7 7 3.8557 0 7-3.1443 7-7 0-3.8558-3.1443-7-7-7zm-3 4h2v2h-2zm4 0h2v2h-2zm-5.5 4h1.0625c0.4319 1.4528 1.8462 2 3.4375 2s3.0056-0.5472 3.4375-2h1.0625c-0.4642 2.0053-2.3654 3.5-4.5 3.5s-4.0358-1.4947-4.5-3.5z" style="fill-opacity:.75;fill:currentColor" class="ColorScheme-Text"/>
		<path id="d" transform="translate(410 1055.4)" d="m8 0c-4.3994 0-8 3.6006-8 8s3.6006 8 8 8c4.3994 0 8-3.6006 8-8s-3.6007-8-8-8zm0 1c3.8557 0 7 3.1442 7 7 0 3.8557-3.1443 7-7 7-3.8557 0-7-3.1443-7-7 0-3.8558 3.1443-7 7-7zm-3 4v2h2v-2h-2zm4 0v2h2v-2h-2zm-5.5 4c0.46419 2.0053 2.3654 3.5 4.5 3.5s4.0358-1.4947 4.5-3.5h-1.0625c-0.4319 1.4528-1.8462 2-3.4375 2s-3.0056-0.5472-3.4375-2h-1.0625z" style="fill-opacity:.5;fill:currentColor" class="ColorScheme-Background"/>
	</g>
</svg>
